16x16/actions/view-split-left-right.svg

<svg xmlns="http://www.w3.org/2000/svg" viewBox="0 0 16 16"><path style="fill:currentColor;fill-opacity:1;stroke:none;color:#5d656b" d="M2 2v12h5V2H2zm6 0v12h6V2H8zM3 5h3v8H3V5zm6 0h4v8H9V5z"/></svg>

<svg xmlns="http://www.w3.org/2000/svg" viewBox="0 0 16 16">
  <defs id="defs3051">
    <style type="text/css" id="current-color-scheme">
      .ColorScheme-Text {
        color:#5d656b;
      }
      </style>
  </defs>
 <path style="fill:currentColor;fill-opacity:1;stroke:none" 
       d="M 2 2 L 2 14 L 7 14 L 7 2 L 2 2 z M 8 2 L 8 14 L 14 14 L 14 2 L 8 2 z M 3 5 L 6 5 L 6 13 L 3 13 L 3 5 z M 9 5 L 13 5 L 13 13 L 9 13 L 9 5 z "
     class="ColorScheme-Text"
     />
</svg>
